X: 29
T: The White Fox
N: Derived from pawnee29.krn
O: Oklahoma, U.S.A.
N: from Pawnee Music by Frances Densmore, 1926
Z: transcribed to **kern format by David Huron, August 2000
C: Skidi and Chaui Bands, 1919
L: 1/8
M: 2/4
Q: 1/4=88
K: F clef=bass
%%linebreak <none>
F,4- | 
F,4[M:3/4] | 
F/ F/ FF2F (D/ C/) | 
D C (C A,/ G,/)!fermata!z2 | 
C/ C/ C (D C) C (_A,/ G,/) | 
_A,/ G,/ G, (G,/ F,/) F,!fermata!F,2[M:2/4] | 
G, G, G,3/ _A,/ | 
G,> F,F,2 | 
F,4 | 
F,4- | 
F,4 | 
F,4[M:3/4] | 
C C C> C (G,/ F,/) G, | 
C C C> D C C | 
(3(_A, G,) A, (3(A, G,) G, F,3/ =A,/[M:2/4] | 
(3(_A, G,) G,!fermata!F,2 | 
F,4[M:3/4] | 
C,> C, C,> D, (3D, C, C,[M:2/4] | 
(3_A,, F,, A,, (3A,, G,, G,, | 
F,,3_A,, | 
(3_A,, G,, G,, (3A,, G,, G,, | 
F,,4 | 
F,,4 |]  



